X:1
T:Hursley, LM
T:Hursley, LM
T:Katholisches Gesangbuch (Vienna, Austri
T:Public Domain Courtesy of the Cyber Hymnal™
C:Katholisches Gesangbuch (Vienna, Austri
Z:Public Domain
Z:Courtesy of the Cyber Hymnal™
%%score ( 1 2 ) ( 3 4 )
L:1/8
Q:1/4=140
M:3/4
K:F
V:1 treble 
V:2 treble 
V:3 bass 
V:4 bass 
V:1
 [CF]2 [CF]2 [CF]2 | (F2 E2) [CF]2 | (G2 A2) [EG]2 | F6 | [FA]2 [FA]2 [FA]2 | [FA]2 [EG]2 [FA]2 | %6
 ([Fc]2 [EB]2) [FA]2 | [EG]6 | [EG]2 G2 [^FA]2 | B4 [EG]2 | [FA]4 [FB]2 | [Ec]6 | %12
 [Fd]2 [Fd]2 [Fd]2 | c4 [FA]2 | (B2 A2) [EG]2 | F6 |] %16
V:2
 x6 | C4 x2 | E4 x2 | F6 | x6 | x6 | x6 | x6 | x2 G2 x2 | (G2 D2) x2 | x6 | x6 | x6 | (F2 E2) x2 | %14
 F4 x2 | F6 |] %16
V:3
 [F,A,]2 [F,A,]2 [F,A,]2 | (A,2 G,2) [F,A,]2 | (B,2 C2) [C,B,]2 | [F,A,]6 | [F,C]2 [F,C]2 [F,C]2 | %5
 [F,C]4 [F,C]2 | C4 [F,C]2 | [C,C]6 | C2 [B,D]2 [A,C]2 | [G,B,]4 [C,C]2 | [F,C]4 [D,F,]2 | %11
 [C,G,]6 | [B,,B,]2 [B,,B,]2 [B,,B,]2 | [C,G,]4 [D,F,]2 | [B,,D]2 [C,C]2 [C,B,]2 | [F,A,]6 |] %16
V:4
 x6 | F,4 x2 | C,4 x2 | x6 | x6 | x6 | (A,2 G,2) x2 | x6 | C2 x4 | x6 | x6 | x6 | x6 | x6 | x6 | %15
 x6 |] %16

